www/assets/icons/opacity.svg

<svg width="24" height="24" viewBox="0 0 24 24" xmlns="http://www.w3.org/2000/svg" fill='currentColor'><path d="M17.66 7.99521L12 2.34521L6.34 7.99521C4.78 9.55521 4 11.6352 4 13.6352C4 15.6352 4.78 17.7452 6.34 19.3052C7.9 20.8652 9.95 21.6552 12 21.6552C14.05 21.6552 16.1 20.8652 17.66 19.3052C19.22 17.7452 20 15.6352 20 13.6352C20 11.6352 19.22 9.55521 17.66 7.99521ZM6 13.9952C6.01 11.9952 6.62 10.7252 7.76 9.59522L12 5.26521L16.24 9.64521C17.38 10.7652 17.99 11.9952 18 13.9952H6Z"/></svg>

<svg xmlns="http://www.w3.org/2000/svg" width="24" height="24" viewBox="0 0 24 24" fill='currentColor'><path d="M17.66 7.995 12 2.345l-5.66 5.65A8.02 8.02 0 0 0 4 13.635c0 2 .78 4.11 2.34 5.67a7.99 7.99 0 0 0 11.32 0c1.56-1.56 2.34-3.67 2.34-5.67s-.78-4.08-2.34-5.64m-11.66 6c.01-2 .62-3.27 1.76-4.4L12 5.265l4.24 4.38c1.14 1.12 1.75 2.35 1.76 4.35z"/></svg>
